icons/src/scalable/default/devices/audio-headset-symbolic.svg

<svg xmlns="http://www.w3.org/2000/svg" viewBox="0 0 16 16">
  <defs id="defs3051">
    <style type="text/css" id="current-color-scheme">
      .ColorScheme-Text {
        color:#4d4d4d;
      }
      </style>
  </defs>
 <path 
     style="fill:#bebebe;fill-opacity:1;stroke:none" 
     class="ColorScheme-Text"
     d="M 8 0.00390625 C 4.676 0.00390625 2 2.6799063 2 6.0039062 L 2 10.003906 C 2 10.003906 2 12.003906 4 12.003906 L 6 12.003906 L 6 7.0039062 L 4 7.0039062 L 4 6.0039062 C 4 3.7879063 5.784 2.0039062 8 2.0039062 C 10.216 2.0039062 12 3.7879063 12 6.0039062 L 12 7.0039062 L 10 7.0039062 L 10 12.003906 L 13 12.003906 C 13 13.665906 11.662 15.003906 10 15.003906 L 10 14.003906 L 6 14.003906 L 6 16.003906 L 10 16.003906 C 12.216 16.003906 14 14.219906 14 12.003906 L 14 10.003906 L 14 9.0039062 L 14 8.8222656 L 14 8.5039062 L 14 6.0039062 C 14 2.6799063 11.324 0.00390625 8 0.00390625 z "
     />
</svg>

<svg version="1.1" viewBox="0 0 16 16" xmlns="http://www.w3.org/2000/svg">
 <path d="m8 0.0039062c-3.324 0-6 2.676-6 6v4s0 2 2 2h2v-5h-2v-1c0-2.216 1.784-4 4-4s4 1.784 4 4v1h-2v5h3c0 1.662-1.338 3-3 3v-1h-4v2h4c2.216 0 4-1.784 4-4v-2-1-0.18164-0.31836-2.5c0-3.324-2.676-6-6-6z" fill="#bebebe"/>
</svg>
